packages/tokens/icons/webinar/size32Px.svg

<svg viewBox="0 0 32 32" fill="none" xmlns="http://www.w3.org/2000/svg" width="1em" height="1em"><path d="M3.99997 6.5L28 6.5C28.8284 6.5 29.5 7.17157 29.5 8V24C29.5 24.8284 28.8284 25.5 28 25.5H3.99997C3.17154 25.5 2.49997 24.8284 2.49997 24L2.49997 8C2.49997 7.17157 3.17154 6.5 3.99997 6.5Z" stroke="currentColor" stroke-linecap="round"/><path d="M5.99997 22H26" stroke="currentColor" stroke-linecap="round"/><path d="M24.5 22C24.5 22.2761 24.2761 22.5 24 22.5C23.7238 22.5 23.5 22.2761 23.5 22C23.5 21.7239 23.7238 21.5 24 21.5C24.2761 21.5 24.5 21.7239 24.5 22Z" stroke="currentColor"/><path d="M16 14.5C17.3807 14.5 18.5 13.3807 18.5 12C18.5 10.6193 17.3807 9.5 16 9.5C14.6193 9.5 13.5 10.6193 13.5 12C13.5 13.3807 14.6193 14.5 16 14.5Z" stroke="currentColor" stroke-linecap="round" stroke-linejoin="round"/><path d="M12 19.5V18.5C12 17.3954 12.8954 16.5 14 16.5H18C19.1045 16.5 20 17.3954 20 18.5V19.5" stroke="currentColor" stroke-linecap="round"/></svg>

<svg xmlns="http://www.w3.org/2000/svg" fill="none" viewBox="0 0 32 32" width="1em" height="1em"><path stroke="currentColor" stroke-linecap="round" d="M4 6.5h24A1.5 1.5 0 0 1 29.5 8v16a1.5 1.5 0 0 1-1.5 1.5H4A1.5 1.5 0 0 1 2.5 24V8A1.5 1.5 0 0 1 4 6.5ZM6 22h20"/><path stroke="currentColor" d="M24.5 22a.5.5 0 1 1-1 0 .5.5 0 0 1 1 0Z"/><path stroke="currentColor" stroke-linecap="round" stroke-linejoin="round" d="M16 14.5a2.5 2.5 0 1 0 0-5 2.5 2.5 0 0 0 0 5Z"/><path stroke="currentColor" stroke-linecap="round" d="M12 19.5v-1a2 2 0 0 1 2-2h4a2 2 0 0 1 2 2v1"/></svg>
